categories/128/application-community.svg

<?xml version="1.0" encoding="UTF-8" standalone="no"?>
<!-- Created with Inkscape (http://www.inkscape.org/) -->

<svg
   xmlns:dc="http://purl.org/dc/elements/1.1/"
   xmlns:cc="http://creativecommons.org/ns#"
   xmlns:rdf="http://www.w3.org/1999/02/22-rdf-syntax-ns#"
   xmlns:svg="http://www.w3.org/2000/svg"
   xmlns="http://www.w3.org/2000/svg"
   xmlns:xlink="http://www.w3.org/1999/xlink"
   xmlns:inkscape="http://www.inkscape.org/namespaces/inkscape"
   version="1.0"
   width="128.00006"
   height="128.00006"
   id="svg1">
  <metadata
     id="metadata32">
    <rdf:RDF>
      <cc:Work
         rdf:about="">
        <dc:format>image/svg+xml</dc:format>
        <dc:type
           rdf:resource="http://purl.org/dc/dcmitype/StillImage" />
      </cc:Work>
    </rdf:RDF>
  </metadata>
  <defs
     id="defs3">
    <linearGradient
       id="linearGradient2790">
      <stop
         id="stop2792"
         style="stop-color:#000000;stop-opacity:1"
         offset="0" />
      <stop
         id="stop2794"
         style="stop-color:#000000;stop-opacity:0"
         offset="1" />
    </linearGradient>
    <linearGradient
       id="linearGradient2780">
      <stop
         id="stop2782"
         style="stop-color:#ffffff;stop-opacity:1"
         offset="0" />
      <stop
         id="stop2784"
         style="stop-color:#ffffff;stop-opacity:0"
         offset="1" />
    </linearGradient>
    <linearGradient
       id="linearGradient6621">
      <stop
         id="stop6622"
         style="stop-color:#f5a108;stop-opacity:0"
         offset="0" />
      <stop
         id="stop6623"
         style="stop-color:#fefdc3;stop-opacity:0.74251497"
         offset="1" />
    </linearGradient>
    <linearGradient
       x1="22.819513"
       y1="28.829224"
       x2="12.849945"
       y2="12.239423"
       id="linearGradient7881"
       xlink:href="#linearGradient6621"
       gradientUnits="userSpaceOnUse"
       gradientTransform="matrix(2.8250585,0,0,1.4531892,3.3328648,12.424993)" />
    <radialGradient
       cx="24.375"
       cy="37.75"
       r="17.375"
       fx="24.375"
       fy="37.75"
       id="radialGradient2796"
       xlink:href="#linearGradient2790"
       gradientUnits="userSpaceOnUse"
       gradientTransform="matrix(2.6666715,0,0,1.179858,-1.5149841e-7,57.627138)" />
    <linearGradient
       id="linearGradient3242">
      <stop
         id="stop3244"
         style="stop-color:#f8b17e;stop-opacity:1"
         offset="0" />
      <stop
         id="stop3246"
         style="stop-color:#e35d4f;stop-opacity:1"
         offset="0.31209752" />
      <stop
         id="stop3248"
         style="stop-color:#c6262e;stop-opacity:1"
         offset="0.57054454" />
      <stop
         id="stop3250"
         style="stop-color:#690b54;stop-opacity:1"
         offset="1" />
    </linearGradient>
    <linearGradient
       id="linearGradient2490">
      <stop
         id="stop2492"
         style="stop-color:#791235;stop-opacity:1"
         offset="0" />
      <stop
         id="stop2494"
         style="stop-color:#dd3b27;stop-opacity:1"
         offset="1" />
    </linearGradient>
    <linearGradient
       x1="24"
       y1="6"
       x2="24"
       y2="51"
       id="linearGradient3853"
       xlink:href="#linearGradient3242"
       gradientUnits="userSpaceOnUse"
       gradientTransform="matrix(2.6050751,0,0,2.6618754,1.170634,1.0466096)" />
    <linearGradient
       x1="17"
       y1="45"
       x2="17"
       y2="6"
       id="linearGradient3861"
       xlink:href="#linearGradient2490"
       gradientUnits="userSpaceOnUse"
       gradientTransform="matrix(2.6050751,0,0,2.6618754,1.170634,1.0466096)" />
    <linearGradient
       x1="21.802013"
       y1="5.9932957"
       x2="21.802013"
       y2="44.754166"
       id="linearGradient3208"
       xlink:href="#linearGradient2780"
       gradientUnits="userSpaceOnUse"
       gradientTransform="matrix(2.6050751,0,0,2.6618754,1.170634,1.0466096)" />
  </defs>
  <path
     d="m 111.33354,102.16677 c 0,11.32186 -20.744182,20.50004 -46.333421,20.50004 -25.589239,0 -46.333418,-9.17818 -46.333418,-20.50004 0,-11.321855 20.744179,-20.500036 46.333418,-20.500036 25.589239,0 46.333421,9.178181 46.333421,20.500036 z"
     inkscape:connector-curvature="0"
     id="path2788"
     style="opacity:0.3;fill:url(#radialGradient2796);fill-opacity:1;fill-rule:nonzero;stroke:none;stroke-width:1;marker:none;visibility:visible;display:inline;overflow:visible" />
  <path
     d="m 37.433245,22.667184 c -14.314401,-0.704287 -20.983071,8.487443 -24.590307,17.231437 -3.5797267,11.514702 1.480501,33.263264 26.278006,31.608723 14.144376,0 19.766258,-14.499193 27.210368,-18.263101 6.765303,-2.55694 7.297759,-2.785786 14.445407,-2.785786 9.933007,0 27.895651,-7.185578 27.895661,-14.31535 C 105.61922,30.421901 97.513447,20.233316 82.618585,21.969841 73.137401,23.072863 64.167639,29.847264 61.824606,33.218228 56.084965,28.15791 48.756314,22.667184 37.433245,22.667184 z"
     inkscape:connector-curvature="0"
     id="path7876"
     style="fill:url(#linearGradient7881);fill-opacity:1;fill-rule:evenodd;stroke:none" />
  <path
     d="M 63.266666,28.194042 C 87.464357,3.4790586 120.71766,26.258962 120.49893,49.698005 120.29897,71.125368 104.31006,81.387195 64.141609,119.50006 22.097347,84.044192 7.2836461,75.867936 7.5023823,50.445087 7.7211181,24.128582 36.188743,4.3779256 63.266666,28.194042 z"
     inkscape:connector-curvature="0"
     id="path920"
     style="fill:url(#linearGradient3853);fill-opacity:1;fill-rule:evenodd;stroke:url(#linearGradient3861);stroke-width:0.99999988;stroke-linecap:butt;stroke-linejoin:miter;stroke-miterlimit:4;stroke-opacity:1;stroke-dasharray:none" />
  <path
     d="M 38.375,18.46875 C 21.723209,18.335643 8.6151224,32.827177 8.46875,50.4375 8.3610267,62.957761 11.853525,70.985571 20.6875,80.53125 c 8.720771,9.423355 22.811006,20.3146 43.40625,37.65625 19.70667,-18.669398 33.644834,-30.69396 42.5,-40.5 8.965,-9.927674 12.83978,-17.528015 12.9375,-28 C 119.63627,38.433445 111.61824,27.130762 100.625,21.75 89.631763,16.369238 75.805778,16.784923 63.96875,28.875 63.608409,29.249165 63.018516,29.276602 62.625,28.9375 54.306613,21.621146 45.944359,18.529256 38.375,18.46875 z"
     inkscape:connector-curvature="0"
     id="path3206"
     style="opacity:0.4;fill:none;stroke:url(#linearGradient3208);stroke-width:0.99999988;stroke-linecap:butt;stroke-linejoin:miter;stroke-miterlimit:4;stroke-opacity:1;stroke-dasharray:none" />
</svg>

<?xml version="1.0" encoding="UTF-8" standalone="no"?>
<!-- Created with Inkscape (http://www.inkscape.org/) -->
<svg
   xmlns:svg="http://www.w3.org/2000/svg"
   xmlns="http://www.w3.org/2000/svg"
   xmlns:xlink="http://www.w3.org/1999/xlink"
   version="1.0"
   width="128.00006"
   height="128.00006"
   id="svg1">
  <defs
     id="defs3">
    <linearGradient
       id="linearGradient2790">
      <stop
         id="stop2792"
         style="stop-color:#000000;stop-opacity:1"
         offset="0" />
      <stop
         id="stop2794"
         style="stop-color:#000000;stop-opacity:0"
         offset="1" />
    </linearGradient>
    <linearGradient
       id="linearGradient2780">
      <stop
         id="stop2782"
         style="stop-color:#ffffff;stop-opacity:1"
         offset="0" />
      <stop
         id="stop2784"
         style="stop-color:#ffffff;stop-opacity:0"
         offset="1" />
    </linearGradient>
    <linearGradient
       id="linearGradient6621">
      <stop
         id="stop6622"
         style="stop-color:#f5a108;stop-opacity:0"
         offset="0" />
      <stop
         id="stop6623"
         style="stop-color:#fefdc3;stop-opacity:0.74251497"
         offset="1" />
    </linearGradient>
    <linearGradient
       x1="22.819513"
       y1="28.829224"
       x2="12.849945"
       y2="12.239423"
       id="linearGradient7881"
       xlink:href="#linearGradient6621"
       gradientUnits="userSpaceOnUse"
       gradientTransform="matrix(2.8250585,0,0,1.4531892,3.3328648,12.424993)" />
    <radialGradient
       cx="24.375"
       cy="37.75"
       r="17.375"
       fx="24.375"
       fy="37.75"
       id="radialGradient2796"
       xlink:href="#linearGradient2790"
       gradientUnits="userSpaceOnUse"
       gradientTransform="matrix(2.6666715,0,0,1.179858,-1.5149841e-7,57.627138)" />
    <linearGradient
       id="linearGradient3242">
      <stop
         id="stop3244"
         style="stop-color:#f8b17e;stop-opacity:1"
         offset="0" />
      <stop
         id="stop3246"
         style="stop-color:#e35d4f;stop-opacity:1"
         offset="0.31209752" />
      <stop
         id="stop3248"
         style="stop-color:#c6262e;stop-opacity:1"
         offset="0.57054454" />
      <stop
         id="stop3250"
         style="stop-color:#690b54;stop-opacity:1"
         offset="1" />
    </linearGradient>
    <linearGradient
       id="linearGradient2490">
      <stop
         id="stop2492"
         style="stop-color:#791235;stop-opacity:1"
         offset="0" />
      <stop
         id="stop2494"
         style="stop-color:#dd3b27;stop-opacity:1"
         offset="1" />
    </linearGradient>
    <linearGradient
       x1="24"
       y1="6"
       x2="24"
       y2="51"
       id="linearGradient3853"
       xlink:href="#linearGradient3242"
       gradientUnits="userSpaceOnUse"
       gradientTransform="matrix(2.6050751,0,0,2.6618754,1.170634,1.0466096)" />
    <linearGradient
       x1="17"
       y1="45"
       x2="17"
       y2="6"
       id="linearGradient3861"
       xlink:href="#linearGradient2490"
       gradientUnits="userSpaceOnUse"
       gradientTransform="matrix(2.6050751,0,0,2.6618754,1.170634,1.0466096)" />
    <linearGradient
       x1="21.802013"
       y1="5.9932957"
       x2="21.802013"
       y2="44.754166"
       id="linearGradient3208"
       xlink:href="#linearGradient2780"
       gradientUnits="userSpaceOnUse"
       gradientTransform="matrix(2.6050751,0,0,2.6618754,1.170634,1.0466096)" />
  </defs>
  <path
     d="M 111.33354,102.16677 C 111.33354,113.48863 90.589358,122.66681 65.000119,122.66681 C 39.41088,122.66681 18.666701,113.48863 18.666701,102.16677 C 18.666701,90.844915 39.41088,81.666734 65.000119,81.666734 C 90.589358,81.666734 111.33354,90.844915 111.33354,102.16677 z"
     id="path2788"
     style="opacity:0.3;fill:url(#radialGradient2796);fill-opacity:1;fill-rule:nonzero;stroke:none;stroke-width:1;marker:none;visibility:visible;display:inline;overflow:visible" />
  <path
     d="M 37.433245,22.667184 C 23.118844,21.962897 16.450174,31.154627 12.842938,39.898621 C 9.2632113,51.413323 14.323439,73.161885 39.120944,71.507344 C 53.26532,71.507344 58.887202,57.008151 66.331312,53.244243 C 73.096615,50.687303 73.629071,50.458457 80.776719,50.458457 C 90.709726,50.458457 108.67237,43.272879 108.67238,36.143107 C 105.61922,30.421901 97.513447,20.233316 82.618585,21.969841 C 73.137401,23.072863 64.167639,29.847264 61.824606,33.218228 C 56.084965,28.15791 48.756314,22.667184 37.433245,22.667184 z"
     id="path7876"
     style="fill:url(#linearGradient7881);fill-opacity:1;fill-rule:evenodd;stroke:none" />
  <path
     d="M 63.266666,28.194042 C 87.464357,3.4790586 120.71766,26.258962 120.49893,49.698005 C 120.29897,71.125368 104.31006,81.387195 64.141609,119.50006 C 22.097347,84.044192 7.2836461,75.867936 7.5023823,50.445087 C 7.7211181,24.128582 36.188743,4.3779256 63.266666,28.194042 z"
     id="path920"
     style="fill:url(#linearGradient3853);fill-opacity:1;fill-rule:evenodd;stroke:url(#linearGradient3861);stroke-width:0.99999988;stroke-linecap:butt;stroke-linejoin:miter;stroke-miterlimit:4;stroke-dasharray:none;stroke-opacity:1" />
  <path
     d="M 38.375,18.46875 C 21.723209,18.335643 8.6151224,32.827177 8.46875,50.4375 C 8.3610267,62.957761 11.853525,70.985571 20.6875,80.53125 C 29.408271,89.954605 43.498506,100.84585 64.09375,118.1875 C 83.80042,99.518102 97.738584,87.49354 106.59375,77.6875 C 115.55875,67.759826 119.43353,60.159485 119.53125,49.6875 C 119.63627,38.433445 111.61824,27.130762 100.625,21.75 C 89.631763,16.369238 75.805778,16.784923 63.96875,28.875 C 63.608409,29.249165 63.018516,29.276602 62.625,28.9375 C 54.306613,21.621146 45.944359,18.529256 38.375,18.46875 z"
     id="path3206"
     style="opacity:0.4;fill:none;fill-opacity:1;fill-rule:evenodd;stroke:url(#linearGradient3208);stroke-width:0.99999988;stroke-linecap:butt;stroke-linejoin:miter;stroke-miterlimit:4;stroke-dasharray:none;stroke-opacity:1" />
</svg>
